apps/scalable/disk/disk.svg

<svg xmlns="http://www.w3.org/2000/svg" style="isolation:isolate" width="256" height="256"><defs><filter id="a" width="270.648" height="254.338" x="-7.32" y="2.95" filterUnits="userSpaceOnUse"><feGaussianBlur xmlns="http://www.w3.org/2000/svg" in="SourceGraphic" stdDeviation="4.294"/><feOffset xmlns="http://www.w3.org/2000/svg" dy="4" result="pf_100_offsetBlur"/><feFlood xmlns="http://www.w3.org/2000/svg" flood-opacity=".4"/><feComposite xmlns="http://www.w3.org/2000/svg" in2="pf_100_offsetBlur" operator="in" result="pf_100_dropShadow"/><feBlend xmlns="http://www.w3.org/2000/svg" in="SourceGraphic" in2="pf_100_dropShadow"/></filter></defs><path fill="#CDCDCD" d="M165.685 11.947c74.055 0 84.639 10.557 84.639 84.544v59.251c0 73.986-10.584 84.543-84.639 84.543h-75.37c-74.055 0-84.639-10.557-84.639-84.543V96.491c0-73.987 10.584-84.544 84.639-84.544h75.37z" filter="url(#a)"/><g opacity=".4"><linearGradient id="b" x1=".517" x2=".517" y2="1"><stop offset="0%" stop-color="#fff"/><stop offset="12.5%" stop-opacity=".098" stop-color="#fff"/><stop offset="92.5%" stop-opacity=".098"/><stop offset="100%" stop-opacity=".498"/></linearGradient><path fill="none" stroke="url(#b)" stroke-linecap="round" stroke-linejoin="round" stroke-width="4.077" d="M165.685 11.947c74.055 0 84.639 10.557 84.639 84.544v59.251c0 73.986-10.584 84.543-84.639 84.543h-75.37c-74.055 0-84.639-10.557-84.639-84.543V96.491c0-73.987 10.584-84.544 84.639-84.544h75.37z" vector-effect="non-scaling-stroke"/></g><circle fill="#5D5D5D" r="1" transform="matrix(84.019 0 0 -84.019 129.019 126.352)" vector-effect="non-scaling-stroke"/><path d="M45 126.352a84.02 84.02 0 1 1 168.037 0H45z" opacity=".05"/><defs><filter id="c" width="198.726" height="198.726" x="29.66" y="28.9" filterUnits="userSpaceOnUse"><feGaussianBlur xmlns="http://www.w3.org/2000/svg" stdDeviation="4.4"/></filter></defs><g opacity=".2" filter="url(#c)"><linearGradient id="d" x1=".5" x2=".5" y1=".307" y2=".943"><stop offset="0%"/><stop offset="100%" stop-opacity="0"/></linearGradient><path fill="none" stroke="url(#d)" stroke-linejoin="round" stroke-width="10.194" d="M129.019 44.243C82.616 44.243 45 81.859 45 128.261c0 46.403 37.616 84.019 84.019 84.019 46.402 0 84.018-37.616 84.018-84.019 0-46.402-37.616-84.018-84.018-84.018z" vector-effect="non-scaling-stroke"/></g><defs><filter id="e" width="160.681" height="160.681" x="48.68" y="47.92" filterUnits="userSpaceOnUse"><feGaussianBlur xmlns="http://www.w3.org/2000/svg" stdDeviation="3.75"/></filter></defs><path d="M129.019 199.868c-39.548 0-71.607-32.059-71.607-71.607 0-39.547 32.059-71.606 71.607-71.606 39.547 0 71.606 32.059 71.606 71.606 0 39.548-32.059 71.607-71.606 71.607z" opacity=".2" filter="url(#e)"/><linearGradient id="f" x1=".5" x2=".5" y2="1" gradientTransform="translate(57.412 54.745) scale(143.213)" gradientUnits="userSpaceOnUse"><stop offset="0%" stop-color="#e6e6e6"/><stop offset="100%" stop-color="#f2f2f2"/></linearGradient><path fill="url(#f)" d="M129.019 197.959c-39.548 0-71.607-32.06-71.607-71.607s32.059-71.607 71.607-71.607c39.547 0 71.606 32.06 71.606 71.607s-32.059 71.607-71.606 71.607z"/><ellipse rx="1" ry="1" transform="translate(129.019 126.352) scale(30.552)" vector-effect="non-scaling-stroke" opacity=".05"/><ellipse fill="#FFF" rx="1" ry="1" transform="translate(129.019 126.352) scale(19.095)" vector-effect="non-scaling-stroke"/><circle fill="#CBCBCB" r="1" transform="rotate(-30 253.974 -165.133) scale(1.91)" vector-effect="non-scaling-stroke"/><circle fill="#CBCBCB" r="1" transform="rotate(-30 346.617 -189.945) scale(1.91)" vector-effect="non-scaling-stroke"/><circle fill="#CBCBCB" r="1" transform="rotate(-60 152.444 -36.143) scale(1.91)" vector-effect="non-scaling-stroke"/><circle fill="#CBCBCB" r="1" transform="rotate(-60 195.443 -60.967) scale(1.91)" vector-effect="non-scaling-stroke"/><circle fill="#CBCBCB" r="1" transform="rotate(-90 115.273 11.079) scale(1.91)" vector-effect="non-scaling-stroke"/><circle fill="#CBCBCB" r="1" transform="matrix(0 -1.91 1.91 0 153.842 126.352)" vector-effect="non-scaling-stroke"/><circle fill="#CBCBCB" r="1" transform="rotate(-120 93.819 38.347) scale(1.91)" vector-effect="non-scaling-stroke"/><circle fill="#CBCBCB" r="1" transform="rotate(-120 108.152 13.523) scale(1.91)" vector-effect="non-scaling-stroke"/><circle fill="#CBCBCB" r="1" transform="rotate(-150 78.114 58.304) scale(1.91)" vector-effect="non-scaling-stroke"/><circle fill="#CBCBCB" r="1" transform="rotate(-150 84.765 33.48) scale(1.91)" vector-effect="non-scaling-stroke"/><circle fill="#CBCBCB" r="1" transform="rotate(180 64.51 75.588) scale(1.91)" vector-effect="non-scaling-stroke"/><circle fill="#CBCBCB" r="1" transform="rotate(180 64.51 50.764) scale(1.91)" vector-effect="non-scaling-stroke"/><ellipse rx="1" ry="1" transform="translate(129.019 126.352) scale(15.276)" vector-effect="non-scaling-stroke" opacity=".1"/><ellipse fill="#888" rx="1" ry="1" transform="translate(129.019 126.352) scale(3.819)" vector-effect="non-scaling-stroke"/><defs><filter id="g" width="144.004" height="54.889" x="39.59" y="162.8" filterUnits="userSpaceOnUse"><feGaussianBlur xmlns="http://www.w3.org/2000/svg" stdDeviation="2.321"/></filter></defs><path d="M178.194 168.202S65.537 210.249 59.425 211.887c-6.112 1.638-12.394-1.99-14.032-8.102-1.637-6.112 1.99-12.394 8.102-14.032 6.112-1.637 124.699-21.551 124.699-21.551z" opacity=".2" filter="url(#g)"/><path fill="#FFF" d="M178.194 166.292S65.537 208.34 59.425 209.977c-6.112 1.638-12.394-1.989-14.032-8.101-1.637-6.112 1.99-12.394 8.102-14.032s124.699-21.552 124.699-21.552z"/><circle fill="gray" r="1" transform="translate(56.457 198.913) scale(3.819)" vector-effect="non-scaling-stroke"/><path fill="#FFF" d="M129.019 54.745c-39.548 0-71.607 32.06-71.607 71.607 0 .32.02.635.024.955.514-39.106 32.356-70.652 71.583-70.652s71.069 31.546 71.582 70.652c.004-.32.025-.635.025-.955 0-39.547-32.06-71.607-71.607-71.607z" opacity=".5"/><path d="M56.457 49.971a3.819 3.819 0 1 0 .001 7.637 3.819 3.819 0 0 0-.001-7.637zm145.123 0a3.819 3.819 0 1 0 .001 7.637 3.819 3.819 0 0 0-.001-7.637zm0 145.123a3.819 3.819 0 1 0 .001 7.637 3.819 3.819 0 0 0-.001-7.637z" opacity=".1"/></svg>

<svg xmlns="http://www.w3.org/2000/svg" style="isolation:isolate" width="256" height="256" viewBox="0 0 256 256">
 <defs>
  <filter id="bUgHlTSRRA4nLmTeIqUVNMENRxjOLs3O" width="270.648" height="254.338" x="-7.32" y="2.95" filterUnits="userSpaceOnUse">
   <feGaussianBlur xmlns="http://www.w3.org/2000/svg" in="SourceGraphic" stdDeviation="4.294"/>
   <feOffset xmlns="http://www.w3.org/2000/svg" dx="0" dy="4" result="pf_100_offsetBlur"/>
   <feFlood xmlns="http://www.w3.org/2000/svg" flood-opacity=".4"/>
   <feComposite xmlns="http://www.w3.org/2000/svg" in2="pf_100_offsetBlur" operator="in" result="pf_100_dropShadow"/>
   <feBlend xmlns="http://www.w3.org/2000/svg" in="SourceGraphic" in2="pf_100_dropShadow" mode="normal"/>
  </filter>
 </defs>
 <g filter="url(#bUgHlTSRRA4nLmTeIqUVNMENRxjOLs3O)">
  <path fill="#CDCDCD" d="M 165.685 11.947 C 239.74 11.947 250.324 22.504 250.324 96.491 L 250.324 155.742 C 250.324 229.728 239.74 240.285 165.685 240.285 L 90.315 240.285 C 16.26 240.285 5.676 229.728 5.676 155.742 L 5.676 96.491 C 5.676 22.504 16.26 11.947 90.315 11.947 L 165.685 11.947 Z"/>
 </g>
 <g opacity=".4">
  <linearGradient id="_lgradient_90" x1=".517" x2=".517" y1="0" y2="1">
   <stop offset="0%" style="stop-color:rgb(255,255,255)"/>
   <stop offset="12.5%" stop-opacity=".098" style="stop-color:rgb(255,255,255)"/>
   <stop offset="92.5%" stop-opacity=".098" style="stop-color:rgb(0,0,0)"/>
   <stop offset="100%" stop-opacity=".498" style="stop-color:rgb(0,0,0)"/>
  </linearGradient>
  <path fill="none" stroke="url(#_lgradient_90)" stroke-linecap="round" stroke-linejoin="round" stroke-width="4.077" d="M 165.685 11.947 C 239.74 11.947 250.324 22.504 250.324 96.491 L 250.324 155.742 C 250.324 229.728 239.74 240.285 165.685 240.285 L 90.315 240.285 C 16.26 240.285 5.676 229.728 5.676 155.742 L 5.676 96.491 C 5.676 22.504 16.26 11.947 90.315 11.947 L 165.685 11.947 Z" vector-effect="non-scaling-stroke"/>
 </g>
 <g>
  <circle fill="#5D5D5D" cx="0" cy="0" r="1" transform="matrix(84.019,0,0,-84.019,129.019,126.352)" vector-effect="non-scaling-stroke"/>
  <g opacity=".05">
   <path d="M 45 126.352 C 45 104.069 53.852 82.698 69.608 66.942 C 85.365 51.185 106.735 42.333 129.019 42.333 C 151.302 42.333 172.672 51.185 188.429 66.942 C 204.185 82.698 213.037 104.069 213.037 126.352 L 45 126.352 Z"/>
  </g>
  <defs>
   <filter id="yUAGKgaV6nBP4rW7Rfg5w9h53ZryCjBV" width="198.726" height="198.726" x="29.66" y="28.9" filterUnits="userSpaceOnUse">
    <feGaussianBlur xmlns="http://www.w3.org/2000/svg" stdDeviation="4.4"/>
   </filter>
  </defs>
  <g opacity=".2" filter="url(#yUAGKgaV6nBP4rW7Rfg5w9h53ZryCjBV)">
   <linearGradient id="_lgradient_91" x1=".5" x2=".5" y1=".307" y2=".943">
    <stop offset="0%" style="stop-color:rgb(0,0,0)"/>
    <stop offset="100%" stop-opacity="0" style="stop-color:rgb(0,0,0)"/>
   </linearGradient>
   <path fill="none" stroke="url(#_lgradient_91)" stroke-linejoin="round" stroke-width="10.194" d="M 129.019 44.243 C 82.616 44.243 45 81.859 45 128.261 C 45 174.664 82.616 212.28 129.019 212.28 C 175.421 212.28 213.037 174.664 213.037 128.261 C 213.037 81.859 175.421 44.243 129.019 44.243 Z" vector-effect="non-scaling-stroke"/>
  </g>
  <defs>
   <filter id="fKp1FsePQzKW30HYUlDq221UZAUNHkx7" width="160.681" height="160.681" x="48.68" y="47.92" filterUnits="userSpaceOnUse">
    <feGaussianBlur xmlns="http://www.w3.org/2000/svg" stdDeviation="3.75"/>
   </filter>
  </defs>
  <g opacity=".2" filter="url(#fKp1FsePQzKW30HYUlDq221UZAUNHkx7)">
   <path d="M 129.019 199.868 C 89.471 199.868 57.412 167.809 57.412 128.261 C 57.412 88.714 89.471 56.655 129.019 56.655 C 168.566 56.655 200.625 88.714 200.625 128.261 C 200.625 167.809 168.566 199.868 129.019 199.868 Z"/>
  </g>
  <linearGradient id="_lgradient_92" x1=".5" x2=".5" y1="0" y2="1" gradientTransform="matrix(143.213,0,0,143.213,57.412,54.745)" gradientUnits="userSpaceOnUse">
   <stop offset="0%" style="stop-color:rgb(230,230,230)"/>
   <stop offset="100%" style="stop-color:rgb(242,242,242)"/>
  </linearGradient>
  <path fill="url(#_lgradient_92)" d="M 129.019 197.959 C 89.471 197.959 57.412 165.899 57.412 126.352 C 57.412 86.805 89.471 54.745 129.019 54.745 C 168.566 54.745 200.625 86.805 200.625 126.352 C 200.625 165.899 168.566 197.959 129.019 197.959 Z"/>
  <g opacity=".05">
   <ellipse cx="0" cy="0" rx="1" ry="1" transform="matrix(30.552,0,0,30.552,129.019,126.352)" vector-effect="non-scaling-stroke"/>
  </g>
  <ellipse fill="#FFFFFF" cx="0" cy="0" rx="1" ry="1" transform="matrix(19.095,0,0,19.095,129.019,126.352)" vector-effect="non-scaling-stroke"/>
  <circle fill="#CBCBCB" cx="0" cy="0" r="1" transform="matrix(1.654,-0.955,0.955,1.654,116.607,104.854)" vector-effect="non-scaling-stroke"/>
  <circle fill="#CBCBCB" cx="0" cy="0" r="1" transform="matrix(1.654,-0.955,0.955,1.654,141.43,147.85)" vector-effect="non-scaling-stroke"/>
  <circle fill="#CBCBCB" cx="0" cy="0" r="1" transform="matrix(0.955,-1.654,1.654,0.955,107.521,113.94)" vector-effect="non-scaling-stroke"/>
  <circle fill="#CBCBCB" cx="0" cy="0" r="1" transform="matrix(0.955,-1.654,1.654,0.955,150.517,138.764)" vector-effect="non-scaling-stroke"/>
  <circle fill="#CBCBCB" cx="0" cy="0" r="1" transform="matrix(0,-1.91,1.91,0,104.195,126.352)" vector-effect="non-scaling-stroke"/>
  <circle fill="#CBCBCB" cx="0" cy="0" r="1" transform="matrix(0,-1.91,1.91,0,153.842,126.352)" vector-effect="non-scaling-stroke"/>
  <circle fill="#CBCBCB" cx="0" cy="0" r="1" transform="matrix(-0.955,-1.654,1.654,-0.955,107.521,138.764)" vector-effect="non-scaling-stroke"/>
  <circle fill="#CBCBCB" cx="0" cy="0" r="1" transform="matrix(-0.955,-1.654,1.654,-0.955,150.517,113.94)" vector-effect="non-scaling-stroke"/>
  <circle fill="#CBCBCB" cx="0" cy="0" r="1" transform="matrix(-1.654,-0.955,0.955,-1.654,116.607,147.85)" vector-effect="non-scaling-stroke"/>
  <circle fill="#CBCBCB" cx="0" cy="0" r="1" transform="matrix(-1.654,-0.955,0.955,-1.654,141.43,104.854)" vector-effect="non-scaling-stroke"/>
  <circle fill="#CBCBCB" cx="0" cy="0" r="1" transform="matrix(-1.91,0,0,-1.91,129.019,151.176)" vector-effect="non-scaling-stroke"/>
  <circle fill="#CBCBCB" cx="0" cy="0" r="1" transform="matrix(-1.91,0,0,-1.91,129.019,101.528)" vector-effect="non-scaling-stroke"/>
  <g opacity=".1">
   <ellipse cx="0" cy="0" rx="1" ry="1" transform="matrix(15.276,0,0,15.276,129.019,126.352)" vector-effect="non-scaling-stroke"/>
  </g>
  <ellipse fill="#888888" cx="0" cy="0" rx="1" ry="1" transform="matrix(3.819,0,0,3.819,129.019,126.352)" vector-effect="non-scaling-stroke"/>
  <defs>
   <filter id="rvc2AhlH4vgphCLSkZEXWe2Kit1DXxIp" width="144.004" height="54.889" x="39.59" y="162.8" filterUnits="userSpaceOnUse">
    <feGaussianBlur xmlns="http://www.w3.org/2000/svg" stdDeviation="2.321"/>
   </filter>
  </defs>
  <g opacity=".2" filter="url(#rvc2AhlH4vgphCLSkZEXWe2Kit1DXxIp)">
   <path d="M 178.194 168.202 C 178.194 168.202 65.537 210.249 59.425 211.887 C 53.313 213.525 47.031 209.897 45.393 203.785 C 43.756 197.673 47.383 191.391 53.495 189.753 C 59.607 188.116 178.194 168.202 178.194 168.202 Z"/>
  </g>
  <path fill="#FFFFFF" d="M 178.194 166.292 C 178.194 166.292 65.537 208.34 59.425 209.977 C 53.313 211.615 47.031 207.988 45.393 201.876 C 43.756 195.764 47.383 189.482 53.495 187.844 C 59.607 186.206 178.194 166.292 178.194 166.292 L 178.194 166.292 Z"/>
  <circle fill="#808080" cx="0" cy="0" r="1" transform="matrix(3.819,0,0,3.819,56.457,198.913)" vector-effect="non-scaling-stroke"/>
  <g opacity=".5">
   <path fill="#FFFFFF" d="M 129.019 54.745 C 89.471 54.745 57.412 86.805 57.412 126.352 C 57.412 126.672 57.432 126.987 57.436 127.307 C 57.95 88.201 89.792 56.655 129.019 56.655 C 168.246 56.655 200.088 88.201 200.601 127.307 C 200.605 126.987 200.626 126.672 200.626 126.352 C 200.626 86.805 168.566 54.745 129.019 54.745 L 129.019 54.745 Z"/>
  </g>
  <g opacity=".1">
   <path d="M 56.457 49.971 C 55.444 49.971 54.473 50.374 53.757 51.09 C 53.04 51.806 52.638 52.778 52.638 53.79 C 52.638 55.9 54.348 57.609 56.457 57.609 C 58.566 57.609 60.276 55.9 60.276 53.79 C 60.276 52.778 59.874 51.806 59.158 51.09 C 58.441 50.374 57.47 49.971 56.457 49.971 L 56.457 49.971 Z M 201.58 49.971 C 200.567 49.971 199.596 50.374 198.88 51.09 C 198.163 51.806 197.761 52.778 197.761 53.79 C 197.761 54.803 198.163 55.775 198.88 56.491 C 199.596 57.207 200.567 57.609 201.58 57.609 C 203.689 57.609 205.399 55.9 205.399 53.79 C 205.399 52.778 204.997 51.806 204.281 51.09 C 203.564 50.374 202.593 49.971 201.58 49.971 L 201.58 49.971 Z M 201.58 195.094 C 200.567 195.094 199.596 195.497 198.88 196.213 C 198.163 196.929 197.761 197.901 197.761 198.913 C 197.761 199.926 198.163 200.898 198.88 201.614 C 199.596 202.33 200.567 202.732 201.58 202.732 C 203.689 202.732 205.399 201.023 205.399 198.913 C 205.399 196.804 203.689 195.094 201.58 195.094 L 201.58 195.094 Z"/>
  </g>
 </g>
</svg>
